X: 121
T: Boże, który mieszkasz nad wszytkimi nieby
C: Mikołaj Gomółka
%%abc-version 2.0
%%abcx-abcm2ps-target-version 5.9.1 (29 Sep 2008)
%%abc-creator hum2abc beta
%%abcx-conversion-date 2021/10/04 07:59:09
%%abc-edited-by Anna Matuszewska
%%abcx-initial-encoding-date 2020-02-23
%%humdrum-veritas 1928648511
%%humdrum-veritas-data 2958043853
%%linebreak <none>
%%barnumbers 0
L: 1/4
M: C|
N: Derived from pl-wn--sd-xvi-qu-273--123_gomolka-mikolaj--boze-ktory-mieszkasz-nad-wszytkimi-nieby.krn
%%staves [1 2 3 4]
V: 1 clef=treble
V: 2
V: 3 clef=alto
V: 4
K: F
[V:1] d4c2dc | 
[V:2] B4A2A2 | 
[V:3] G2>F2E2D3 | 
[V:4] G,4A,2^F,2 [|] 
[V:1] BAB2A2f2 | 
[V:2] G2G2FGB2 | 
[V:3] CB,CDEF2 | 
[V:4] G,2G,2D,2D2 [|] 
[V:1] g2>f2_e2e2 | 
[V:2] c2d2c3B | 
[V:3] E2D2G2G2 | 
[V:4] C2B,2C2C2 [|] 
[V:1] d2f2f2f2 | 
[V:2] A2d2d3c | 
[V:3] F2A2F2F2 | 
[V:4] D2D2D2B,2 [|] 
[V:1] d4c3B | 
[V:2] B2>A2GA2G | 
[V:3] F2>D2EF2E | 
[V:4] B,4C4 [|] 
[V:1] A2B2e3d | 
[V:2] A2GA2<B2B | 
[V:3] F2D2G3F | 
[V:4] F,2G,2E,3B,, [|] 
[V:1] cd2cd2A2 | 
[V:2] AB2AB2F2 | 
[V:3] F2F2D2D3 | 
[V:4] F,2F,2B,,2D,2 [|] 
[V:1] B2c2d3e | 
[V:2] G2A2Bcd2 | 
[V:3] EF2F4 | 
[V:4] G,2F,2B,3C [|] 
[V:1] f2d2c3d | 
[V:2] AA2GA4 | 
[V:3] DEFDEDEF | 
[V:4] D2B,2A,4 [|] 
[V:1] edd4c2 | 
[V:2] B2G2A3G | 
[V:3] GFEDE4 | 
[V:4] G,2B,2A,4 [|] 
[V:1] d4d4 | 
[V:2] F2A2B3A [|] 
[V:3] D2F2G3F | 
[V:4] D,4G,4 [|] 
[V:1] c2>B2A2B4 | 
[V:2] GFG2A2F4 [|] 
[V:3] EF2EF2D4 | 
[V:4] C,4F,2B,,4 [|] 
[V:1] B2A2d4 | 
[V:2] G2F2A4 [|] 
[V:3] D2D2F2 | 
[V:4] G,,2D,2D,4 [|] 
[V:1] d2B3c | 
[V:2] A2G4 [|] 
[V:3] F2>E2DCD2 | 
[V:4] D,2G,4 [|] 
[V:1] d4d3c | 
[V:2] G3F/E/FGF2 [|] 
[V:3] B,3A,/G,/A,B,2A, | 
[V:4] G,4D,4 [|] 
[V:1] B8 | 
[V:2] G8 | 
[V:3] G,8 | 
[V:4] G,,8 | 


